src/assets/flags/tr.svg

<?xml version="1.0" encoding="UTF-8"?>
<svg xmlns="http://www.w3.org/2000/svg" xmlns:xlink="http://www.w3.org/1999/xlink" width="25px" height="px" viewBox="0 0 25 19" version="1.1">
<g id="surface1">
<rect x="0" y="0" width="25" height="19" style="fill:rgb(89.019608%,3.921569%,9.019608%);fill-opacity:1;stroke:none;"/>
<path style=" stroke:none;fill-rule:evenodd;fill:rgb(100%,100%,100%);fill-opacity:1;" d="M 15.898438 9.796875 C 15.898438 12.417969 13.765625 14.542969 11.132812 14.542969 C 8.5 14.542969 6.367188 12.417969 6.367188 9.792969 C 6.367188 7.167969 8.5 5.050781 11.132812 5.050781 C 13.765625 5.050781 15.898438 7.175781 15.898438 9.796875 "/>
<path style=" stroke:none;fill-rule:evenodd;fill:rgb(89.019608%,3.921569%,9.019608%);fill-opacity:1;" d="M 16.132812 9.796875 C 16.132812 11.894531 14.429688 13.59375 12.324219 13.59375 C 10.21875 13.59375 8.511719 11.890625 8.511719 9.792969 C 8.511719 7.695312 10.21875 6 12.324219 6 C 14.429688 6 16.136719 7.699219 16.136719 9.796875 Z M 16.132812 9.796875 "/>
<path style=" stroke:none;fill-rule:evenodd;fill:rgb(100%,100%,100%);fill-opacity:1;" d="M 16.824219 7.582031 L 16.785156 9.332031 L 15.171875 9.777344 L 16.765625 10.351562 L 16.726562 11.960938 L 17.761719 10.703125 L 19.332031 11.257812 L 18.425781 9.90625 L 19.53125 8.566406 L 17.832031 9.039062 L 16.824219 7.578125 Z M 16.824219 7.582031 "/>
</g>
</svg>

<svg xmlns="http://www.w3.org/2000/svg" width="25" height="px" viewBox="0 0 25 19"><path d="M0 0h25v19H0z" style="fill:#e30a17;fill-opacity:1;stroke:none"/><path d="M15.898 9.797c0 2.621-2.132 4.746-4.765 4.746a4.756 4.756 0 0 1-4.766-4.75c0-2.625 2.133-4.742 4.766-4.742s4.765 2.125 4.765 4.746" style="stroke:none;fill-rule:evenodd;fill:#fff;fill-opacity:1"/><path d="M16.133 9.797a3.8 3.8 0 0 1-3.809 3.797 3.81 3.81 0 0 1-3.812-3.801C8.512 7.695 10.219 6 12.324 6c2.106 0 3.813 1.7 3.813 3.797Zm0 0" style="stroke:none;fill-rule:evenodd;fill:#e30a17;fill-opacity:1"/><path d="m16.824 7.582-.039 1.75-1.613.445 1.594.575-.04 1.609 1.036-1.258 1.57.555-.906-1.352 1.105-1.34-1.699.473-1.008-1.46Zm0 0" style="stroke:none;fill-rule:evenodd;fill:#fff;fill-opacity:1"/></svg>
